X: 34977
T: Roddy McDonald's Fancy
R: reel
M: 4/4
K: Amajor
af|:ecBd cAAB|c2cB ceaf|ecBd cA~A2|cffe f2af:|
ecef ~a3f|e2cA Bcaf|ecef aAfe|Bffe f2af|
ecef ~a3f|e2cA Bcaf|ecBd cA~A2|cffe f2ec||
|:~B3c A3B|c2cB c2af|ecBd cA~A2|1 cffe f2ec:|2 cffe f2ef||
a2ef aefa|efae fAef|a2ef aAfe|Bffe f2ef|
a2ba fbaf|eAfe Bcaf|ecBd cA~A2|cffe f2af||

